X:1
T:天使頌歌
T:天使頌歌
T:Angels' Carol
T:John Rutter
T:Soprano
C:John Rutter
L:1/8
Q:1/4=125
M:2/2
K:F
V:1 treble nm="S A"
V:1
 z8 | z8 | z8 | z8 | z8 | z8 | z8 | z8 | z8 | z8 | z2!mf! FF c2 f2 | _e8- | e2 f_e d2 c2 | d4 d4- | %14
w: ||||||||||你 曾 否 得|見|* 天 星 發 放|光 輝?|
 d2 ed c2 B2 | c6 F2 | B2 A2 G2 F2 | G8 | z8 | z8 | z8 | z8 | z8 | z8 | z8 | z8 | z8 | %27
w: * 這 是 神 印|記: 在|此 基 督 誕|生。||||||||||
!f!"^B" (de) f4 ed | e2 c2 A2 F2 | (Bc) d4 cB | c2 A2 F2 D2 | z2 CC F2 A2 | G2 D2 E2 G2 | F8 | z8 | %35
w: 榮 * 光 歸 至|高 的 真 神,|榮 * 光 歸 至|高 的 真 神!|同 來 聆 聽|天 使 樂 歌|韻。||
 z8 | z2!p!"^C" CC F2 A2 | G8- | G2 AG F2 G2 | A4 A4 | z2 CC F2 c2 | B4 B4- | B2 AB G2 d2 | c8- | %44
w: |在 寧 靜 冬|天|* 主 證 和 平|佳 音:|猶 如 雪 花|輕 飄,|* 降 於 靜 悄|夜;|
 c2 FF c2 f2 |!mf! _e8- | e2 f_e d2 c2 | d4 d4 | z2 ed c2 B2 | c6 F2 | B2 A2 G2 F2 | G8 | %52
w: * 主 帶 來 喜|訊|* 彷 似 旭 日|東 升,|充 滿 此 世|間 晨|暉 燦 爛 流|瀉。|
 z2!p!"^D" CC F2 A2 | G8- | G2 AG F2 G2 | A4 A4 | z2 CC F2 c2 | B4 B4- | B2 AB G2 d2 | c8- | %60
w: 祂 帶 來 主|愛:|* 以 那 人 子|式 樣;|在 那 陋 簡|馬 棚|* 我 眾 見 祂|生:|
 c4 z4 |"^E" (de) f4 ed | e2 c2 A2 F2 | (Bc) d4 cB | c2 A2 F2 D2 | z2 CC F2 A2 | G2 D2 E2 G2 | F8 | %68
w: |榮 * 光 歸 至|高 的 真 神,|榮 * 光 歸 至|高 的 真 神!|主 使 者 歌|唱 平 安 歸|人。|
 z8 | z8 |[K:G] z2!f!"^F" DD G2 B2 | A8- | A2 BA G2 A2 | B4- B4 | z2 DD G2 d2 | c4 c4- | %76
w: ||主 帶 來 新|輝,|* 真 光 照 世|間, *|猶 同 景 星|高 天|
 c2 Bc A2 e2 | d8 | z2 GG d2 g2 | =f8- | f2 g=f e2 d2 | e4 e4- | e2 fe d2 c2 | d6!mf! G2 | %84
w: * 八 方 耀 光|彩;|帶 來 新 希|望|* 給 那 久 待|邦 國|* 基 督 來 統|管, 以|
 c2 B2 A2 G2 | A8 |"^G" z8 | z2 cc e2 g2 | (fe)dc B2 A2 | G4 G4 | z2 DD G2 d2 | c4 c4- | %92
w: 真 純 與 仁|愛||讓 世 間 歡|欣 * 迓 迎 救 主|聖 誕;|讓 那 人 天|歡 呼|
 c2 Bc A2 e2 | d8- | d6 z2 |"^H" (ef) g4 fe | f2 d2 B2 G2 | (cd) e4 dc | d2 B2 G2 E2 | %99
w: * 在 清 晨 響|應:||榮 * 光 歸 至|高 的 真 神,|榮 * 光 歸 至|高 的 真 神!|
 z2!mf! DD G2 B2 | A2 E2 F2 A2 | G8- | G8 |[M:4/4][Q:1/4=92] z2!p! DD G2 d2 | c2 e2 d2 f2 | g8- | %106
w: 主 使 者 都|歌 頌 主 生|辰。||主 使 者 都|頌 讚 主 誕|生|
 g4 z4 | z8 |] %108
w: ||

